src/images/services/transportation-of-road-equipment.svg

<svg width="96" height="96" viewBox="0 0 96 96" fill="none" xmlns="http://www.w3.org/2000/svg">
<path fill-rule="evenodd" clip-rule="evenodd" d="M21.5681 26.5697C21.6552 26.0949 22.069 25.75 22.5518 25.75H40.2778C40.6867 25.75 41.0545 25.999 41.2063 26.3786L41.7525 27.7442C42.0153 28.401 41.5315 29.1156 40.8241 29.1156H28.2506C26.5938 29.1156 25.2506 30.4587 25.2506 32.1156V45.2122H18.1504L21.5681 26.5697ZM16.9311 47.2122C16.9447 47.2125 16.9583 47.2125 16.9719 47.2122H26.2423L26.2506 47.2122L26.259 47.2122H43.6559C46.2736 47.2122 48.5891 48.9092 49.3774 51.4054L49.4563 51.6554C49.4013 51.6524 49.3458 51.6509 49.29 51.6509H6.1296L8.81094 48.9696C9.93616 47.8443 11.4623 47.2122 13.0536 47.2122H16.9311ZM16.117 45.2122L19.6009 26.209C19.8621 24.7846 21.1036 23.75 22.5518 23.75H40.2778C41.5046 23.75 42.6077 24.4969 43.0633 25.6358L43.6095 27.0014C44.3977 28.972 42.9464 31.1156 40.8241 31.1156H28.2506C27.6984 31.1156 27.2506 31.5633 27.2506 32.1156V45.2122H40.3671L42.1358 40.4955C42.3298 39.9784 42.9062 39.7164 43.4233 39.9103C43.9404 40.1042 44.2024 40.6807 44.0085 41.1978L42.5031 45.2122H43.6559C47.1461 45.2122 50.2335 47.4749 51.2845 50.8031L51.8859 52.7074C51.9377 52.8715 51.945 53.0389 51.9146 53.1967C52.1538 53.6275 52.29 54.1233 52.29 54.6509V61.6666H56.1663C61.2506 45.9311 83.7791 45.8193 88.6409 61.7092C91.3387 62.0468 93.4259 64.3486 93.4259 67.1379C93.4259 69.9675 91.2777 72.2955 88.5232 72.58C83.4658 87.9766 61.5516 87.8661 56.2858 72.6091H52.29V72.6092H51.29H34.3337C33.6557 79.0425 28.2136 84.0558 21.6006 84.0558C14.9876 84.0558 9.54555 79.0425 8.86754 72.6092H5C3.34314 72.6092 2 71.2661 2 69.6092V54.6509C2 54.1232 2.13623 53.6274 2.37545 53.1966C2.31558 52.8823 2.4073 52.5448 2.65061 52.3015L7.39673 47.5553C8.89702 46.055 10.9319 45.2122 13.0536 45.2122H16.117ZM57.0357 70.6091C57.021 70.6088 57.0063 70.6088 56.9915 70.6091H52.29V63.6666H87.9546C89.8717 63.6666 91.4259 65.2207 91.4259 67.1379C91.4259 69.055 89.8717 70.6091 87.9546 70.6091H87.7971C87.7825 70.6088 87.7679 70.6088 87.7534 70.6091H79.2033H79.1804H65.6068H65.5879H57.0357ZM58.4173 72.6091C63.3895 85.2523 81.6231 85.2473 86.3921 72.6091H79.7097C76.0798 77.4655 68.7407 77.4949 65.0828 72.6091H58.4173ZM64.8269 61.6666H58.2814C63.0918 48.5463 81.9229 48.5516 86.5223 61.6666H79.9644C76.3719 56.3653 68.5603 56.3022 64.8892 61.577L64.8269 61.6666ZM76.9763 72.6091C74.3525 74.8085 70.4507 74.8186 67.8164 72.6091H76.9763ZM67.4212 61.6666H77.3717C74.6307 58.992 70.1757 58.9785 67.4212 61.6666ZM4 54.6509C4 54.0986 4.44771 53.6509 5 53.6509H49.29C49.8423 53.6509 50.29 54.0986 50.29 54.6509V62.6535L50.2899 62.6666L50.29 62.6796V70.6092H34.389C34.0544 63.8361 28.4568 58.4473 21.6006 58.4473C14.7445 58.4473 9.14689 63.8361 8.81225 70.6092H5C4.44771 70.6092 4 70.1615 4 69.6092V54.6509ZM10.8494 72.3279C11.0373 72.1461 11.1541 71.8913 11.1541 71.6092C11.1541 71.3049 11.0182 71.0324 10.8038 70.849C11.0155 65.0685 15.7684 60.4473 21.6006 60.4473C27.5676 60.4473 32.4049 65.2845 32.4049 71.2515C32.4049 77.2186 27.5676 82.0558 21.6006 82.0558C15.9969 82.0558 11.3896 77.7896 10.8494 72.3279Z" fill="#00CC66"/>
</svg>

<svg xmlns="http://www.w3.org/2000/svg" width="96" height="96" fill="none"><path fill="#0C6" fill-rule="evenodd" d="M21.568 26.57a1 1 0 0 1 .984-.82h17.726a1 1 0 0 1 .928.629l.546 1.365a1 1 0 0 1-.928 1.372H28.251a3 3 0 0 0-3 3v13.096h-7.1l3.417-18.642Zm-4.637 20.642H43.656a6 6 0 0 1 5.721 4.193l.08.25a3.055 3.055 0 0 0-.167-.004H6.13l2.68-2.681a6 6 0 0 1 4.244-1.758h3.877Zm-.814-2 3.484-19.003a3 3 0 0 1 2.95-2.459h17.727a3 3 0 0 1 2.785 1.886L43.61 27c.789 1.971-.663 4.115-2.785 4.115H28.251a1 1 0 0 0-1 1v13.096h13.116l1.769-4.717a1 1 0 0 1 1.872.703l-1.505 4.014h1.153a8 8 0 0 1 7.629 5.591l.6 1.904c.053.164.06.332.03.49.239.43.375.926.375 1.454v7.016h3.876c5.085-15.736 27.613-15.848 32.475.042a5.472 5.472 0 0 1-.118 10.871c-5.057 15.397-26.971 15.286-32.237.03H34.334c-.678 6.433-6.12 11.446-12.733 11.446S9.546 79.043 8.868 72.609H5a3 3 0 0 1-3-3V54.651c0-.528.136-1.024.375-1.454a.999.999 0 0 1 .276-.896l4.746-4.746a8 8 0 0 1 5.657-2.343h3.063ZM57.036 70.61H52.29v-6.942h35.665a3.471 3.471 0 1 1 0 6.942H57.036Zm1.381 2c4.972 12.643 23.206 12.638 27.975 0H79.71c-3.63 4.857-10.97 4.886-14.627 0h-6.666Zm6.41-10.942H58.28c4.81-13.12 23.642-13.115 28.241 0h-6.558c-3.592-5.302-11.404-5.365-15.075-.09l-.062.09Zm12.15 10.942c-2.624 2.2-6.526 2.21-9.16 0h9.16ZM67.42 61.667h9.95c-2.74-2.675-7.195-2.689-9.95 0ZM4 54.65a1 1 0 0 1 1-1h44.29a1 1 0 0 1 1 1V70.61H34.389c-.335-6.774-5.932-12.163-12.788-12.163S9.147 63.837 8.812 70.61H5a1 1 0 0 1-1-1V54.651Zm6.85 17.677a.997.997 0 0 0-.046-1.479c.211-5.78 4.964-10.402 10.797-10.402 5.967 0 10.804 4.837 10.804 10.804 0 5.968-4.837 10.805-10.804 10.805-5.604 0-10.211-4.266-10.752-9.728Z" clip-rule="evenodd"/></svg>
